icons/svg/file-delimited.svg

﻿<?xml version="1.0" encoding="utf-8"?>
<!DOCTYPE svg PUBLIC "-//W3C//DTD SVG 1.1//EN" "http://www.w3.org/Graphics/SVG/1.1/DTD/svg11.dtd">
<svg xmlns="http://www.w3.org/2000/svg" xmlns:xlink="http://www.w3.org/1999/xlink" version="1.1" baseProfile="full" width="24" height="24" viewBox="0 0 24.00 24.00" enable-background="new 0 0 24.00 24.00" xml:space="preserve">
	<path fill="#000000" fill-opacity="1" stroke-width="0.2" stroke-linejoin="round" d="M 12.9994,8.99807L 18.4994,8.99807L 12.9994,3.49807L 12.9994,8.99807 Z M 5.99939,1.99807L 13.9994,1.99807L 19.9994,7.99807L 19.9994,19.9981C 19.9994,21.1021 19.1034,21.9981 17.9994,21.9981L 5.98938,21.9981C 4.88538,21.9981 3.99939,21.1021 3.99939,19.9981L 4.0094,3.99807C 4.0094,2.89407 4.89437,1.99807 5.99939,1.99807 Z M 14,15L 14,11L 10,11L 10,15L 12.3,15C 12.6,17 12,18 9.7,19.3813L 10.85,20.2C 13,19 14,16 14,15 Z "/>
</svg>

<svg xmlns="http://www.w3.org/2000/svg" version="1.1" baseProfile="full" width="24" height="24" viewBox="0 0 24.00 24.00" xml:space="preserve"><path fill="#000" fill-opacity="1" stroke-width=".2" stroke-linejoin="round" d="M13 8.998h5.5l-5.5-5.5v5.5zm-7-7h8l6 6v12c0 1.104-.897 2-2 2H5.99c-1.105 0-1.99-.896-1.99-2l.01-16c0-1.104.884-2 1.99-2zM14 15v-4h-4v4h2.3c.3 2-.3 3-2.6 4.38l1.15.82C13 19 14 16 14 15z"/></svg>
